Numix-GalliumOS/22/status/user-away.svg

<?xml version="1.0" encoding="UTF-8" standalone="no"?>
<svg
   xmlns:dc="http://purl.org/dc/elements/1.1/"
   xmlns:cc="http://creativecommons.org/ns#"
   xmlns:rdf="http://www.w3.org/1999/02/22-rdf-syntax-ns#"
   xmlns:svg="http://www.w3.org/2000/svg"
   xmlns="http://www.w3.org/2000/svg"
   xmlns:sodipodi="http://sodipodi.sourceforge.net/DTD/sodipodi-0.dtd"
   xmlns:inkscape="http://www.inkscape.org/namespaces/inkscape"
   width="22"
   viewBox="0 0 22 22"
   height="22"
   id="svg2"
   version="1.1"
   inkscape:version="0.91 r"
   sodipodi:docname="user-away.svg">
  <metadata
     id="metadata18">
    <rdf:RDF>
      <cc:Work
         rdf:about="">
        <dc:format>image/svg+xml</dc:format>
        <dc:type
           rdf:resource="http://purl.org/dc/dcmitype/StillImage" />
      </cc:Work>
    </rdf:RDF>
  </metadata>
  <sodipodi:namedview
     pagecolor="#ffffff"
     bordercolor="#666666"
     borderopacity="1"
     objecttolerance="10"
     gridtolerance="10"
     guidetolerance="10"
     inkscape:pageopacity="0"
     inkscape:pageshadow="2"
     inkscape:window-width="1280"
     inkscape:window-height="998"
     id="namedview16"
     showgrid="true"
     inkscape:zoom="37.252131"
     inkscape:cx="6.5573011"
     inkscape:cy="11"
     inkscape:window-x="0"
     inkscape:window-y="0"
     inkscape:window-maximized="1"
     inkscape:current-layer="svg2">
    <inkscape:grid
       type="xygrid"
       id="grid3020" />
  </sodipodi:namedview>
  <defs
     id="defs4" />
  <path
     style="fill:#eedb58;fill-opacity:1;stroke:none"
     d="m 11,3 c -4.418278,0 -8,3.1340067 -8,7 0,3.865993 3.581722,7 8,7 4.418278,0 8,-3.134007 8,-7 0,-3.8659933 -3.581722,-7 -8,-7 z m 0.03148,3 c 0.264603,0 0.547248,0.1097478 0.75,0.3125 l 2.90625,2.90625 c 0.01644,0.016439 0.01614,0.04528 0.03125,0.0625 0.09948,0.1134013 0.17016,0.2368943 0.21875,0.375 0.03503,0.099565 0.0625,0.2106406 0.0625,0.3125 3.4e-4,0.010777 0,0.020387 0,0.03125 3.33e-4,0.01072 0,0.02052 0,0.03125 3.33e-4,0.01027 9.99e-4,0.02056 0,0.03125 -2.86e-4,0.0099 5.72e-4,0.02132 0,0.03125 -0.01409,0.244396 -0.124984,0.499984 -0.3125,0.6875 l -2.90625,2.90625 c -0.405504,0.405504 -1.063245,0.405504 -1.46875,0 -0.4055042,-0.405504 -0.4055042,-1.063246 0,-1.46875 L 11.531477,11 8,11 C 7.446,11 7,10.554 7,10 7,9.446 7.446,9 8,9 l 3.531477,0 -1.21875,-1.21875 C 9.9072228,7.3757456 9.9072228,6.7180044 10.312727,6.3125 10.515479,6.1097478 10.766875,6 11.031477,6 z"
     id="path2999"
     inkscape:connector-curvature="0"
     sodipodi:nodetypes="sssssssscscccccsssscssscsss" />
  <path
     style="fill:#eedb58;fill-opacity:1;stroke:none"
     d="M 11.336219,15 17,19 16,13 z"
     id="path3001"
     inkscape:connector-curvature="0"
     sodipodi:nodetypes="cccc" />
</svg>

<svg xmlns="http://www.w3.org/2000/svg" viewBox="0 0 22 22">
 <path d="m 11 3 c -4.418 0 -8 3.134 -8 7 0 3.866 3.582 7 8 7 4.418 0 8 -3.134 8 -7 0 -3.866 -3.582 -7 -8 -7 z m 0.031 3 c 0.265 0 0.547 0.11 0.75 0.313 l 2.906 2.906 c 0.016 0.016 0.016 0.045 0.031 0.063 0.099 0.113 0.17 0.237 0.219 0.375 0.035 0.1 0.063 0.211 0.063 0.313 0 0.011 0 0.02 0 0.031 0 0.011 0 0.021 0 0.031 0 0.01 0.001 0.021 0 0.031 0 0.01 0.001 0.021 0 0.031 -0.014 0.244 -0.125 0.5 -0.313 0.688 l -2.906 2.906 c -0.406 0.406 -1.063 0.406 -1.469 0 -0.406 -0.406 -0.406 -1.063 0 -1.469 l 1.219 -1.219 -3.531 0 c -0.554 0 -1 -0.446 -1 -1 0 -0.554 0.446 -1 1 -1 l 3.531 0 -1.219 -1.219 c -0.406 -0.406 -0.406 -1.063 0 -1.469 0.203 -0.203 0.454 -0.313 0.719 -0.313 z" style="fill:#eedb58;fill-opacity:1;stroke:none"/>
 <path d="m 11.336 15 5.664 4 -1 -6 z" style="fill:#eedb58;fill-opacity:1;stroke:none"/>
</svg>
